assets/1. P-Z/Rice cracker/Color/Rice.Cracker-color.svg

<svg width="100%" height="100%" viewBox="0 0 32 32" fill="none" xmlns="http://www.w3.org/2000/svg">
<path d="M28.7531 17.0131C28.7531 15.8431 29.2331 14.6231 28.9431 13.5531C28.6431 12.4331 27.6131 11.6231 27.0531 10.6431C26.4831 9.65312 26.2831 8.35312 25.4831 7.55312C24.6831 6.75312 23.3831 6.55312 22.3931 5.98312C21.4131 5.41312 20.6031 4.38312 19.4831 4.09312C18.4031 3.80312 17.1831 4.28312 16.0231 4.28312C14.8531 4.28312 13.6331 3.80312 12.5631 4.09312C11.4431 4.39312 10.6331 5.42312 9.65312 5.98312C8.65312 6.55312 7.35312 6.75312 6.55312 7.55312C5.75312 8.35312 5.55312 9.65312 4.98312 10.6431C4.41312 11.6231 3.38312 12.4331 3.09312 13.5531C2.80312 14.6331 3.28312 15.8531 3.28312 17.0131C3.28312 18.1831 2.80312 19.4031 3.09312 20.4731C3.39312 21.5931 4.42312 22.4031 4.98312 23.3831C5.55312 24.3731 5.75312 25.6731 6.55312 26.4731C7.35312 27.2731 8.65312 27.4731 9.64312 28.0431C10.6231 28.6131 11.4331 29.6431 12.5531 29.9331C13.6331 30.2231 14.8531 29.7431 16.0131 29.7431C17.1831 29.7431 18.4031 30.2231 19.4731 29.9331C20.5931 29.6331 21.4031 28.6031 22.3831 28.0431C23.3731 27.4731 24.6731 27.2731 25.4731 26.4731C26.2731 25.6731 26.4731 24.3731 27.0431 23.3831C27.6131 22.4031 28.6431 21.5931 28.9331 20.4731C29.2331 19.4031 28.7531 18.1831 28.7531 17.0131Z" fill="url(#paint0_linear_18_28893)"/>
<path d="M28.7531 17.0131C28.7531 15.8431 29.2331 14.6231 28.9431 13.5531C28.6431 12.4331 27.6131 11.6231 27.0531 10.6431C26.4831 9.65312 26.2831 8.35312 25.4831 7.55312C24.6831 6.75312 23.3831 6.55312 22.3931 5.98312C21.4131 5.41312 20.6031 4.38312 19.4831 4.09312C18.4031 3.80312 17.1831 4.28312 16.0231 4.28312C14.8531 4.28312 13.6331 3.80312 12.5631 4.09312C11.4431 4.39312 10.6331 5.42312 9.65312 5.98312C8.65312 6.55312 7.35312 6.75312 6.55312 7.55312C5.75312 8.35312 5.55312 9.65312 4.98312 10.6431C4.41312 11.6231 3.38312 12.4331 3.09312 13.5531C2.80312 14.6331 3.28312 15.8531 3.28312 17.0131C3.28312 18.1831 2.80312 19.4031 3.09312 20.4731C3.39312 21.5931 4.42312 22.4031 4.98312 23.3831C5.55312 24.3731 5.75312 25.6731 6.55312 26.4731C7.35312 27.2731 8.65312 27.4731 9.64312 28.0431C10.6231 28.6131 11.4331 29.6431 12.5531 29.9331C13.6331 30.2231 14.8531 29.7431 16.0131 29.7431C17.1831 29.7431 18.4031 30.2231 19.4731 29.9331C20.5931 29.6331 21.4031 28.6031 22.3831 28.0431C23.3731 27.4731 24.6731 27.2731 25.4731 26.4731C26.2731 25.6731 26.4731 24.3731 27.0431 23.3831C27.6131 22.4031 28.6431 21.5931 28.9331 20.4731C29.2331 19.4031 28.7531 18.1831 28.7531 17.0131Z" fill="url(#paint1_radial_18_28893)"/>
<g filter="url(#filter0_f_18_28893)">
<path d="M26.754 16.8438C26.754 15.8126 27.1711 14.7374 26.9191 13.7944C26.6584 12.8073 25.7634 12.0934 25.2767 11.2297C24.7814 10.3572 24.6076 9.2115 23.9124 8.50644C23.2172 7.80138 22.0876 7.62512 21.2273 7.12276C20.3757 6.62041 19.6718 5.71265 18.6985 5.45706C17.76 5.20148 16.6999 5.62452 15.6919 5.62452C14.6751 5.62452 13.615 5.20148 12.6852 5.45706C11.7119 5.72146 10.5938 6.46875 9.625 6.75C8.65625 7.03125 8.16394 6.82619 7.46875 7.53125C6.77356 8.23631 6.59361 10.3572 6.09829 11.2297C5.60297 12.0934 4.70792 12.8073 4.45592 13.7944C4.20391 14.7462 4.62102 15.8214 4.62102 16.8438C4.62102 17.8749 4.20391 18.9501 4.45592 19.8931C4.71661 20.8802 5.61166 21.5941 6.09829 22.4578C6.59361 23.3303 6.76741 24.476 7.46259 25.1811C8.15778 25.8861 9.28746 26.0624 10.1477 26.5647C10.9994 27.0671 11.7032 27.9749 12.6765 28.2304C13.615 28.486 14.6751 28.063 15.6832 28.063C16.6999 28.063 17.76 28.486 18.6898 28.2304C19.6631 27.966 20.367 27.0583 21.2186 26.5647C22.0789 26.0624 23.2086 25.8861 23.9037 25.1811C24.5989 24.476 24.7727 23.3303 25.268 22.4578C25.7634 21.5941 26.6584 20.8802 26.9104 19.8931C27.1711 18.9501 26.754 17.8749 26.754 16.8438Z" fill="url(#paint2_linear_18_28893)"/>
</g>
<path d="M11.8731 13.7631L12.7131 15.6431C12.9031 16.0631 13.3831 16.2431 13.8031 16.0631C14.2231 15.8731 14.4031 15.3931 14.2231 14.9731L13.3831 13.0931C13.1931 12.6731 12.7031 12.4931 12.2931 12.6831C11.8731 12.8631 11.6931 13.3531 11.8731 13.7631Z" fill="#E6B990"/>
<path d="M7.5831 14.5031L5.7531 15.4531C5.3531 15.6631 5.1931 16.1631 5.4031 16.5631C5.6131 16.9631 6.1131 17.1231 6.5131 16.9131L8.3431 15.9631C8.7431 15.7531 8.9031 15.2531 8.6931 14.8531C8.4831 14.4531 7.9831 14.2931 7.5831 14.5031Z" fill="#E6B78D"/>
<path d="M20.2731 9.17315V11.2331C20.2731 11.6831 20.6431 12.0531 21.0931 12.0531C21.5431 12.0531 21.9131 11.6831 21.9131 11.2331V9.17315C21.9131 8.72315 21.5431 8.35315 21.0931 8.35315C20.6431 8.35315 20.2731 8.72315 20.2731 9.17315Z" fill="#E7BA93"/>
<path d="M8.5131 9.66313L7.2931 11.3231C7.0231 11.6931 7.0931 12.2031 7.4631 12.4731C7.8331 12.7431 8.3431 12.6631 8.6131 12.3031L9.8331 10.6431C10.1131 10.2831 10.0331 9.76312 9.6631 9.49312C9.3031 9.22312 8.7831 9.30312 8.5131 9.66313Z" fill="#E6B990"/>
<path d="M15.1131 7.0531L13.5431 8.3931C13.1931 8.6831 13.1531 9.2031 13.4531 9.5531C13.7431 9.9031 14.2631 9.9431 14.6131 9.6431L16.1831 8.3131C16.5331 8.0231 16.5731 7.5031 16.2731 7.1531C15.9731 6.8031 15.4531 6.7631 15.1131 7.0531Z" fill="#E6B990"/>
<path d="M24.5131 15.3331L25.8431 16.9031C26.1331 17.2531 26.6531 17.2931 27.0031 16.9931C27.3531 16.7031 27.3931 16.1831 27.0931 15.8331L25.7631 14.2631C25.4731 13.9131 24.9531 13.8731 24.6031 14.1731C24.2631 14.4731 24.2131 14.9931 24.5131 15.3331Z" fill="#E8BB94"/>
<path d="M25.3131 22.6031L26.8231 21.2031C27.1531 20.8931 27.1731 20.3731 26.8631 20.0431C26.5531 19.7131 26.0331 19.6931 25.7031 20.0031L24.1931 21.4031C23.8631 21.7131 23.8431 22.2331 24.1531 22.5631C24.4531 22.8931 24.9731 22.9131 25.3131 22.6031Z" fill="#ECBB95"/>
<path d="M8.16312 21.9831L7.13312 20.2031C6.90312 19.8131 6.40312 19.6731 6.00312 19.9031C5.61312 20.1331 5.47312 20.6331 5.70312 21.0331L6.73312 22.8131C6.96312 23.2031 7.46312 23.3431 7.86312 23.1131C8.26312 22.8831 8.39312 22.3831 8.16312 21.9831Z" fill="#E3B38C"/>
<path d="M20.6031 14.7231L18.7131 13.9131C18.2931 13.7331 17.8131 13.9231 17.6331 14.3431C17.4531 14.7631 17.6431 15.2431 18.0631 15.4231L19.9531 16.2331C20.3731 16.4131 20.8531 16.2231 21.0331 15.8031C21.2131 15.3831 21.0231 14.9031 20.6031 14.7231Z" fill="#E7B990"/>
<g filter="url(#filter1_f_18_28893)">
<path d="M22.13 17.2732H9.37C8.89 17.2732 8.5 17.6632 8.5 18.1432V26.4375C8.5 27.7188 9.98 27.7188 11.81 27.7188H19.69C21.52 27.7188 23 27.7188 23 26.5156V18.1432C23 17.6632 22.61 17.2732 22.13 17.2732Z" fill="#87564E"/>
</g>
<path d="M22.3931 17.2732H9.63312C9.15312 17.2732 8.76312 17.6632 8.76312 18.1432V26.7332C8.76312 28.5632 10.2431 30.0432 12.0731 30.0432H19.9531C21.7831 30.0432 23.2631 28.5632 23.2631 26.7332V18.1432C23.2631 17.6632 22.8731 17.2732 22.3931 17.2732Z" fill="url(#paint3_linear_18_28893)"/>
<path d="M22.3931 17.2732H9.63312C9.15312 17.2732 8.76312 17.6632 8.76312 18.1432V26.7332C8.76312 28.5632 10.2431 30.0432 12.0731 30.0432H19.9531C21.7831 30.0432 23.2631 28.5632 23.2631 26.7332V18.1432C23.2631 17.6632 22.8731 17.2732 22.3931 17.2732Z" fill="url(#paint4_linear_18_28893)"/>
<path d="M22.3931 17.2732H9.63312C9.15312 17.2732 8.76312 17.6632 8.76312 18.1432V26.7332C8.76312 28.5632 10.2431 30.0432 12.0731 30.0432H19.9531C21.7831 30.0432 23.2631 28.5632 23.2631 26.7332V18.1432C23.2631 17.6632 22.8731 17.2732 22.3931 17.2732Z" fill="url(#paint5_linear_18_28893)"/>
<g filter="url(#filter2_f_18_28893)">
<path d="M22.2578 17.4086H9.76842C9.2986 17.4086 8.91687 17.7903 8.91687 18.2601V26.668C8.91687 28.4591 10.3655 29.9078 12.1567 29.9078H19.8696C21.6608 29.9078 23.1094 28.4591 23.1094 26.668V18.2601C23.1094 17.7903 22.7276 17.4086 22.2578 17.4086Z" fill="url(#paint6_linear_18_28893)"/>
<path d="M22.2578 17.4086H9.76842C9.2986 17.4086 8.91687 17.7903 8.91687 18.2601V26.668C8.91687 28.4591 10.3655 29.9078 12.1567 29.9078H19.8696C21.6608 29.9078 23.1094 28.4591 23.1094 26.668V18.2601C23.1094 17.7903 22.7276 17.4086 22.2578 17.4086Z" fill="url(#paint7_linear_18_28893)"/>
</g>
<g filter="url(#filter3_f_18_28893)">
<path d="M12.75 5.90112C12.8 5.25112 13.1562 4.448 13.1562 4.448C13.7188 4.68237 16 4.85425 16 4.85425V6.27612C14.8958 6.42196 12.75 5.90112 12.75 5.90112Z" fill="url(#paint8_linear_18_28893)"/>
</g>
<defs>
<filter id="filter0_f_18_28893" x="3.125" y="4.125" width="25.125" height="25.4375" filterUnits="userSpaceOnUse" color-interpolation-filters="sRGB">
<feFlood flood-opacity="0" result="BackgroundImageFix"/>
<feBlend mode="normal" in="SourceGraphic" in2="BackgroundImageFix" result="shape"/>
<feGaussianBlur stdDeviation="0.625" result="effect1_foregroundBlur_18_28893"/>
</filter>
<filter id="filter1_f_18_28893" x="8.25" y="17.0232" width="15" height="10.9456" filterUnits="userSpaceOnUse" color-interpolation-filters="sRGB">
<feFlood flood-opacity="0" result="BackgroundImageFix"/>
<feBlend mode="normal" in="SourceGraphic" in2="BackgroundImageFix" result="shape"/>
<feGaussianBlur stdDeviation="0.125" result="effect1_foregroundBlur_18_28893"/>
</filter>
<filter id="filter2_f_18_28893" x="8.81687" y="17.3086" width="14.3925" height="12.6991" filterUnits="userSpaceOnUse" color-interpolation-filters="sRGB">
<feFlood flood-opacity="0" result="BackgroundImageFix"/>
<feBlend mode="normal" in="SourceGraphic" in2="BackgroundImageFix" result="shape"/>
<feGaussianBlur stdDeviation="0.05" result="effect1_foregroundBlur_18_28893"/>
</filter>
<filter id="filter3_f_18_28893" x="11.75" y="3.448" width="5.25" height="3.85388" filterUnits="userSpaceOnUse" color-interpolation-filters="sRGB">
<feFlood flood-opacity="0" result="BackgroundImageFix"/>
<feBlend mode="normal" in="SourceGraphic" in2="BackgroundImageFix" result="shape"/>
<feGaussianBlur stdDeviation="0.5" result="effect1_foregroundBlur_18_28893"/>
</filter>
<linearGradient id="paint0_linear_18_28893" x1="3" y1="15.375" x2="29.0362" y2="15.375" gradientUnits="userSpaceOnUse">
<stop stop-color="#916540"/>
<stop offset="0.184839" stop-color="#97643A"/>
<stop offset="0.540113" stop-color="#D28138"/>
<stop offset="0.734553" stop-color="#FFA45A"/>
<stop offset="1" stop-color="#FFAD65"/>
</linearGradient>
<radialGradient id="paint1_radial_18_28893" cx="0" cy="0" r="1" gradientUnits="userSpaceOnUse" gradientTransform="translate(24.5 28.125) rotate(165.887) scale(11.2779 2.98316)">
<stop stop-color="#9B617D"/>
<stop offset="1" stop-color="#A26070" stop-opacity="0"/>
</radialGradient>
<linearGradient id="paint2_linear_18_28893" x1="23.9741" y1="9.12518" x2="7.08024" y2="24.6891" gradientUnits="userSpaceOnUse">
<stop stop-color="#D28149"/>
<stop offset="0.462677" stop-color="#D98F5A"/>
<stop offset="1" stop-color="#E2A26F"/>
</linearGradient>
<linearGradient id="paint3_linear_18_28893" x1="8.76312" y1="23.6582" x2="23.2631" y2="23.6582" gradientUnits="userSpaceOnUse">
<stop stop-color="#51386E"/>
<stop offset="1" stop-color="#584A95"/>
</linearGradient>
<linearGradient id="paint4_linear_18_28893" x1="14.0625" y1="30.0432" x2="14.0625" y2="23.6582" gradientUnits="userSpaceOnUse">
<stop stop-color="#4C2D6F"/>
<stop offset="1" stop-color="#503374" stop-opacity="0"/>
</linearGradient>
<linearGradient id="paint5_linear_18_28893" x1="9.75" y1="29.3125" x2="23" y2="17.2732" gradientUnits="userSpaceOnUse">
<stop stop-color="#442C51"/>
<stop offset="0.338516" stop-color="#4B356A"/>
<stop offset="0.508653" stop-color="#5C4877"/>
<stop offset="1" stop-color="#7975B9"/>
</linearGradient>
<linearGradient id="paint6_linear_18_28893" x1="8.91687" y1="23.6582" x2="23.1094" y2="23.6582" gradientUnits="userSpaceOnUse">
<stop stop-color="#51386E"/>
<stop offset="1" stop-color="#584A95"/>
</linearGradient>
<linearGradient id="paint7_linear_18_28893" x1="14.1039" y1="29.9078" x2="14.1039" y2="23.6582" gradientUnits="userSpaceOnUse">
<stop stop-color="#4C2D6F"/>
<stop offset="1" stop-color="#503374" stop-opacity="0"/>
</linearGradient>
<linearGradient id="paint8_linear_18_28893" x1="14.375" y1="5.37494" x2="18.4687" y2="5.96875" gradientUnits="userSpaceOnUse">
<stop stop-color="#E79043"/>
<stop offset="0.840714" stop-color="#E79043" stop-opacity="0"/>
</linearGradient>
</defs>
</svg>

<svg width="100%" height="100%" viewBox="0 0 32 32" xmlns="http://www.w3.org/2000/svg"><path fill="url(#a)" d="M28.753 17.013c0-1.17.48-2.39.19-3.46-.3-1.12-1.33-1.93-1.89-2.91-.57-.99-.77-2.29-1.57-3.09s-2.1-1-3.09-1.57c-.98-.57-1.79-1.6-2.91-1.89-1.08-.29-2.3.19-3.46.19-1.17 0-2.39-.48-3.46-.19-1.12.3-1.93 1.33-2.91 1.89-1 .57-2.3.77-3.1 1.57s-1 2.1-1.57 3.09c-.57.98-1.6 1.79-1.89 2.91-.29 1.08.19 2.3.19 3.46 0 1.17-.48 2.39-.19 3.46.3 1.12 1.33 1.93 1.89 2.91.57.99.77 2.29 1.57 3.09s2.1 1 3.09 1.57c.98.57 1.79 1.6 2.91 1.89 1.08.29 2.3-.19 3.46-.19 1.17 0 2.39.48 3.46.19 1.12-.3 1.93-1.33 2.91-1.89.99-.57 2.29-.77 3.09-1.57s1-2.1 1.57-3.09c.57-.98 1.6-1.79 1.89-2.91.3-1.07-.18-2.29-.18-3.46"/><path fill="url(#b)" d="M28.753 17.013c0-1.17.48-2.39.19-3.46-.3-1.12-1.33-1.93-1.89-2.91-.57-.99-.77-2.29-1.57-3.09s-2.1-1-3.09-1.57c-.98-.57-1.79-1.6-2.91-1.89-1.08-.29-2.3.19-3.46.19-1.17 0-2.39-.48-3.46-.19-1.12.3-1.93 1.33-2.91 1.89-1 .57-2.3.77-3.1 1.57s-1 2.1-1.57 3.09c-.57.98-1.6 1.79-1.89 2.91-.29 1.08.19 2.3.19 3.46 0 1.17-.48 2.39-.19 3.46.3 1.12 1.33 1.93 1.89 2.91.57.99.77 2.29 1.57 3.09s2.1 1 3.09 1.57c.98.57 1.79 1.6 2.91 1.89 1.08.29 2.3-.19 3.46-.19 1.17 0 2.39.48 3.46.19 1.12-.3 1.93-1.33 2.91-1.89.99-.57 2.29-.77 3.09-1.57s1-2.1 1.57-3.09c.57-.98 1.6-1.79 1.89-2.91.3-1.07-.18-2.29-.18-3.46"/><g filter="url(#c)"><path fill="url(#d)" d="M26.754 16.844c0-1.031.417-2.107.165-3.05-.26-.987-1.156-1.7-1.642-2.564-.496-.873-.67-2.019-1.365-2.724s-1.824-.88-2.685-1.383c-.851-.503-1.555-1.41-2.529-1.666-.938-.256-1.998.168-3.006.168-1.017 0-2.077-.424-3.007-.168-.973.264-2.091 1.012-3.06 1.293s-1.461.076-2.156.781-.875 2.826-1.37 3.699c-.496.863-1.391 1.577-1.643 2.564-.252.952.165 2.027.165 3.05 0 1.03-.417 2.106-.165 3.05.26.986 1.156 1.7 1.642 2.564.496.872.67 2.018 1.365 2.723s1.824.881 2.685 1.384c.851.502 1.555 1.41 2.529 1.665.938.256 1.998-.167 3.006-.167 1.017 0 2.077.423 3.007.167.973-.264 1.677-1.172 2.529-1.665.86-.503 1.99-.679 2.685-1.384s.869-1.85 1.364-2.723c.495-.864 1.39-1.578 1.642-2.565.261-.943-.156-2.018-.156-3.05"/></g><path fill="#E6B990" d="m11.873 13.763.84 1.88c.19.42.67.6 1.09.42.42-.19.6-.67.42-1.09l-.84-1.88a.82.82 0 0 0-1.09-.41c-.42.18-.6.67-.42 1.08"/><path fill="#E6B78D" d="m7.583 14.503-1.83.95c-.4.21-.56.71-.35 1.11s.71.56 1.11.35l1.83-.95c.4-.21.56-.71.35-1.11a.827.827 0 0 0-1.11-.35"/><path fill="#E7BA93" d="M20.273 9.173v2.06c0 .45.37.82.82.82s.82-.37.82-.82v-2.06c0-.45-.37-.82-.82-.82s-.82.37-.82.82"/><path fill="#E6B990" d="m8.513 9.663-1.22 1.66c-.27.37-.2.88.17 1.15s.88.19 1.15-.17l1.22-1.66a.81.81 0 0 0-.17-1.15.827.827 0 0 0-1.15.17M15.113 7.053l-1.57 1.34c-.35.29-.39.81-.09 1.16.29.35.81.39 1.16.09l1.57-1.33c.35-.29.39-.81.09-1.16a.825.825 0 0 0-1.16-.1"/><path fill="#E8BB94" d="m24.513 15.333 1.33 1.57c.29.35.81.39 1.16.09.35-.29.39-.81.09-1.16l-1.33-1.57a.814.814 0 0 0-1.16-.09c-.34.3-.39.82-.09 1.16"/><path fill="#ECBB95" d="m25.313 22.603 1.51-1.4a.821.821 0 0 0-1.12-1.2l-1.51 1.4a.821.821 0 0 0 1.12 1.2"/><path fill="#E3B38C" d="m8.163 21.983-1.03-1.78a.83.83 0 0 0-1.13-.3.83.83 0 0 0-.3 1.13l1.03 1.78c.23.39.73.53 1.13.3s.53-.73.3-1.13"/><path fill="#E7B990" d="m20.603 14.723-1.89-.81c-.42-.18-.9.01-1.08.43s.01.9.43 1.08l1.89.81c.42.18.9-.01 1.08-.43s-.01-.9-.43-1.08"/><g filter="url(#e)"><path fill="#87564E" d="M22.13 17.273H9.37a.87.87 0 0 0-.87.87v8.295c0 1.28 1.48 1.28 3.31 1.28h7.88c1.83 0 3.31 0 3.31-1.202v-8.373a.87.87 0 0 0-.87-.87"/></g><path fill="url(#f)" d="M22.393 17.273H9.633a.87.87 0 0 0-.87.87v8.59c0 1.83 1.48 3.31 3.31 3.31h7.88c1.83 0 3.31-1.48 3.31-3.31v-8.59a.87.87 0 0 0-.87-.87"/><path fill="url(#g)" d="M22.393 17.273H9.633a.87.87 0 0 0-.87.87v8.59c0 1.83 1.48 3.31 3.31 3.31h7.88c1.83 0 3.31-1.48 3.31-3.31v-8.59a.87.87 0 0 0-.87-.87"/><path fill="url(#h)" d="M22.393 17.273H9.633a.87.87 0 0 0-.87.87v8.59c0 1.83 1.48 3.31 3.31 3.31h7.88c1.83 0 3.31-1.48 3.31-3.31v-8.59a.87.87 0 0 0-.87-.87"/><g filter="url(#i)"><path fill="url(#j)" d="M22.258 17.409H9.768a.85.85 0 0 0-.851.851v8.408a3.237 3.237 0 0 0 3.24 3.24h7.713a3.237 3.237 0 0 0 3.24-3.24V18.26a.85.85 0 0 0-.852-.851"/><path fill="url(#k)" d="M22.258 17.409H9.768a.85.85 0 0 0-.851.851v8.408a3.237 3.237 0 0 0 3.24 3.24h7.713a3.237 3.237 0 0 0 3.24-3.24V18.26a.85.85 0 0 0-.852-.851"/></g><g filter="url(#l)"><path fill="url(#m)" d="M12.75 5.901c.05-.65.406-1.453.406-1.453.563.234 2.844.406 2.844.406v1.422c-1.104.146-3.25-.375-3.25-.375"/></g><defs><linearGradient id="a" x1="3" x2="29.036" y1="15.375" y2="15.375" gradientUnits="userSpaceOnUse"><stop stop-color="#916540"/><stop offset=".185" stop-color="#97643A"/><stop offset=".54" stop-color="#D28138"/><stop offset=".735" stop-color="#FFA45A"/><stop offset="1" stop-color="#FFAD65"/></linearGradient><linearGradient id="d" x1="23.974" x2="7.08" y1="9.125" y2="24.689" gradientUnits="userSpaceOnUse"><stop stop-color="#D28149"/><stop offset=".463" stop-color="#D98F5A"/><stop offset="1" stop-color="#E2A26F"/></linearGradient><linearGradient id="f" x1="8.763" x2="23.263" y1="23.658" y2="23.658" gradientUnits="userSpaceOnUse"><stop stop-color="#51386E"/><stop offset="1" stop-color="#584A95"/></linearGradient><linearGradient id="g" x1="14.063" x2="14.063" y1="30.043" y2="23.658" gradientUnits="userSpaceOnUse"><stop stop-color="#4C2D6F"/><stop offset="1" stop-color="#503374" stop-opacity="0"/></linearGradient><linearGradient id="h" x1="9.75" x2="23" y1="29.313" y2="17.273" gradientUnits="userSpaceOnUse"><stop stop-color="#442C51"/><stop offset=".339" stop-color="#4B356A"/><stop offset=".509" stop-color="#5C4877"/><stop offset="1" stop-color="#7975B9"/></linearGradient><linearGradient id="j" x1="8.917" x2="23.109" y1="23.658" y2="23.658" gradientUnits="userSpaceOnUse"><stop stop-color="#51386E"/><stop offset="1" stop-color="#584A95"/></linearGradient><linearGradient id="k" x1="14.104" x2="14.104" y1="29.908" y2="23.658" gradientUnits="userSpaceOnUse"><stop stop-color="#4C2D6F"/><stop offset="1" stop-color="#503374" stop-opacity="0"/></linearGradient><linearGradient id="m" x1="14.375" x2="18.469" y1="5.375" y2="5.969" gradientUnits="userSpaceOnUse"><stop stop-color="#E79043"/><stop offset=".841" stop-color="#E79043" stop-opacity="0"/></linearGradient><filter id="c" width="25.125" height="25.438" x="3.125" y="4.125" color-interpolation-filters="sRGB" filterUnits="userSpaceOnUse"><feFlood flood-opacity="0" result="BackgroundImageFix"/><feBlend in="SourceGraphic" in2="BackgroundImageFix" result="shape"/><feGaussianBlur result="effect1_foregroundBlur_18_28893" stdDeviation=".625"/></filter><filter id="e" width="15" height="10.946" x="8.25" y="17.023" color-interpolation-filters="sRGB" filterUnits="userSpaceOnUse"><feFlood flood-opacity="0" result="BackgroundImageFix"/><feBlend in="SourceGraphic" in2="BackgroundImageFix" result="shape"/><feGaussianBlur result="effect1_foregroundBlur_18_28893" stdDeviation=".125"/></filter><filter id="i" width="14.393" height="12.699" x="8.817" y="17.309" color-interpolation-filters="sRGB" filterUnits="userSpaceOnUse"><feFlood flood-opacity="0" result="BackgroundImageFix"/><feBlend in="SourceGraphic" in2="BackgroundImageFix" result="shape"/><feGaussianBlur result="effect1_foregroundBlur_18_28893" stdDeviation=".05"/></filter><filter id="l" width="5.25" height="3.854" x="11.75" y="3.448" color-interpolation-filters="sRGB" filterUnits="userSpaceOnUse"><feFlood flood-opacity="0" result="BackgroundImageFix"/><feBlend in="SourceGraphic" in2="BackgroundImageFix" result="shape"/><feGaussianBlur result="effect1_foregroundBlur_18_28893" stdDeviation=".5"/></filter><radialGradient id="b" cx="0" cy="0" r="1" gradientTransform="rotate(165.887 10.51 15.579)scale(11.2779 2.98316)" gradientUnits="userSpaceOnUse"><stop stop-color="#9B617D"/><stop offset="1" stop-color="#A26070" stop-opacity="0"/></radialGradient></defs></svg>
